symbols/web/nest_thermostat_gen_3/materialsymbolsoutlined/nest_thermostat_gen_3_wght200_48px.svg

<svg xmlns="http://www.w3.org/2000/svg" height="48" width="48"><path d="M24 42q-3.75 0-7.025-1.425-3.275-1.425-5.7-3.85-2.425-2.425-3.85-5.7Q6 27.75 6 24q0-3.75 1.425-7.025 1.425-3.275 3.85-5.7 2.425-2.425 5.7-3.85Q20.25 6 24 6q3.75 0 7.025 1.425 3.275 1.425 5.7 3.85 2.425 2.425 3.85 5.7Q42 20.25 42 24q0 3.75-1.425 7.025-1.425 3.275-3.85 5.7-2.425 2.425-5.7 3.85Q27.75 42 24 42Zm0-1.55q6.8 0 11.625-4.8T40.45 24q0-6.8-4.8-11.625T24 7.55q-6.8 0-11.625 4.8T7.55 24q0 6.8 4.8 11.625T24 40.45Zm0-3.55q-5.4 0-9.15-3.75T11.1 24q0-5.4 3.75-9.15T24 11.1q5.4 0 9.15 3.75T36.9 24q0 5.4-3.75 9.15T24 36.9Zm0-1.5q4.75 0 8.075-3.35Q35.4 28.7 35.4 24q0-4.75-3.35-8.075Q28.7 12.6 24 12.6q-4.75 0-8.075 3.35Q12.6 19.3 12.6 24q0 4.75 3.35 8.075Q19.3 35.4 24 35.4Z"/></svg>

<svg xmlns="http://www.w3.org/2000/svg" height="48" width="48"><path d="M24 42Q20.25 42 16.975 40.575Q13.7 39.15 11.275 36.725Q8.85 34.3 7.425 31.025Q6 27.75 6 24Q6 20.25 7.425 16.975Q8.85 13.7 11.275 11.275Q13.7 8.85 16.975 7.425Q20.25 6 24 6Q27.75 6 31.025 7.425Q34.3 8.85 36.725 11.275Q39.15 13.7 40.575 16.975Q42 20.25 42 24Q42 27.75 40.575 31.025Q39.15 34.3 36.725 36.725Q34.3 39.15 31.025 40.575Q27.75 42 24 42ZM24 40.45Q30.8 40.45 35.625 35.65Q40.45 30.85 40.45 24Q40.45 17.2 35.65 12.375Q30.85 7.55 24 7.55Q17.2 7.55 12.375 12.35Q7.55 17.15 7.55 24Q7.55 30.8 12.35 35.625Q17.15 40.45 24 40.45ZM24 36.9Q18.6 36.9 14.85 33.15Q11.1 29.4 11.1 24Q11.1 18.6 14.85 14.85Q18.6 11.1 24 11.1Q29.4 11.1 33.15 14.85Q36.9 18.6 36.9 24Q36.9 29.4 33.15 33.15Q29.4 36.9 24 36.9ZM24 35.4Q28.75 35.4 32.075 32.05Q35.4 28.7 35.4 24Q35.4 19.25 32.05 15.925Q28.7 12.6 24 12.6Q19.25 12.6 15.925 15.95Q12.6 19.3 12.6 24Q12.6 28.75 15.95 32.075Q19.3 35.4 24 35.4Z"/></svg>
